!!!COM: Robert Schumann
!!!CNT: Deutsch
!!!TXO: Deutsch
!!!OTL: "Jung Volkers Lied"
!!!LYR: Mo2rike
!!!OPR: Fu2nf heitere Gesa2nge
!!!OPS: Op. 125
!!!ONM: No. 3
!!!ENC: Leigh VanHandel
!!!YOR: Schumann Lieder - Max Friedlaender, ed.,
!!!YOR: New York: C. F. Peters, Vol. 3
!!!ODT: 1851/
**kern	**silbe
*staff1	*
*clefG2	*
*k[f#c#g#d#]	*
*M2/4	*
*MM[Sehr lebhaft]	*
=5	=5
{4b	{Und
8ee	die
8b	mich
=6	=6
8.g#	trug
16g#	im
8f#	Mut-
8e	-ter-
=7	=7
2b}	-arm,}
=8	=8
4r	.
8r	.
{8b	{und
=9	=9
4b	die
4ee	mich
=10	=10
4g#	schwang
aq	|
g#q	|
8f#	|
8e	in
=11	=11
4cc#	Kis-
4b}	-sen,}
=12	=12
4r	.
8r	.
{8dd#	{die
=13	=13
4dd#	war
4g#	ein
=14	=14
4cc#	scho2n,
4cc#	froh,
=15	=15
4.a#	brau-
8a#	-nes
=16	=16
4g#}	Weib,}
{[4c#	{woll-
=17	=17
8.c#]	|
16d#	-te
8e	nichts
8c#	vom
=18	=18
4a#	Manns-
4a#	-volk
=19	=19
2f##	wis-
=20	=20
4g#}	-sen.}
4r	.
=21	=21
2r	.
=22	=22
4r	.
8.r	.
{16ee	{Sie
=23	=23
8.ee	scherz-
16g#	-te
8g#	nur
8b	und
=24	=24
8.b	lach-
16e	-te
8e	laut,
8e	und
=25	=25
8e	liess
8f#	die
8g#	Frei-
8a	-er
=26	=26
4b	ste-
4b}	-hen.}
=27	=27
2r	.
=28	=28
4r	.
{4cc#	{"Mo2cht'
=29	=29
8.b	lie-
16b	-ber
8a	sein
8a	des
=30	=30
8.g#	Win-
16g#	-des
4g#}	Braut,}
=31	=31
{8f#	{als
16g#	in
16a	die
8e#	E-
8e#	-he
=32	=32
4f#}	gehn!"}
4r	.
=33	=33
2r	.
=34	=34
4r	.
{4a	{Da
=35	=35
8.g#	kam
16g#	der
8f#	Wind,
8f#	da
=36	=36
8.e#	nahm
16e#	der
8e#	Wind
8e#	als
=37	=37
8f#	Buh-
16g#	-le
16a	|
8g#	sie
8g#	ge-
=38	=38
4e#	-fan-
4f#}	-gen,}
=39	=39
2r	.
=40	=40
8r	.
{8b	{von
8ee	dem
8b	hat
=41	=41
8g#	sie
8g#	ein
8f#	lu-
8e	-stig
=42	=42
2cc#}	Kind,}
=43	=43
4r	.
8r	.
{8b	{Jung
=44	=44
4b	Vol-
4ee	-ker,
=45	=45
4g#	mich,
aq	|
g#q	|
8f#	|
8e	em-
=46	=46
4cc#	-pfan-
4b}	-gen.}
==	==
*-	*-
